Adwaita++/actions/16/fitheight.svg

<svg height="16" viewBox="0 0 16 16" width="16" xmlns="http://www.w3.org/2000/svg">
  <path d="m8 0-1.5 2-1.5 2h2v8h-2l1.5 2 1.5 2 1.5-2 1.5-2h-2v-8h2l-1.5-2z" fill="#474747"/>
</svg>

<svg xmlns="http://www.w3.org/2000/svg" width="16" height="16" version="1.1" viewBox="0 0 16 16">
 <defs>
  <style id="current-color-scheme" type="text/css">
   .ColorScheme-Text { color:#474747; } .ColorScheme-Highlight { color:#4285f4; }
  </style>
 </defs>
 <path style="fill:currentColor" class="ColorScheme-Text" d="M 8,0 6.5,2 5,4 h 2 v 8 H 5 L 6.5,14 8,16 9.5,14 11,12 H 9 V 4 h 2 L 9.5,2 Z"/>
</svg>
